!!!COM: Bach, Johann Sebastian
!!!CDT: 1685/3//-1750/7/28/
!!!OTL@@DE: Christ, der du bist der helle Tag
!!!AGN: 4-Part Chorale
!!!SCT: Erk 230
!!!SCT: BWV 273
!!!YEC: Copyright 2003 by Craig Stuart Sapp
!!!license: GNU General Public License (http://www.gnu.org/copyleft/gpl.html)
!!!SMA: 371 Bach Chorales, edited by Ludwig Erk, C.F. Peters
!!!PDT: 1850, 1865
!!!ONB: Harmony and Root analysis done manually by Craig Sapp
**kern	**kern	**kern	**kern	**root	**harm	**kern
!bass	!tenor	!alto	!soprno	!	!	!
*Iorgan	*Iorgan	*Iorgan	*Iorgan	*Iorgan	*	*Iorgan
*clefF4	*clefF4	*clefG2	*clefG2	*	*	*
*M4/4	*M4/4	*M4/4	*M4/4	*M4/4	*M4/4	*M4/4
*met(C)	*met(C)	*met(C)	*met(C)	*met(C)	*met(C)	*met(C)
*MM60	*MM60	*MM60	*MM60	*MM60	*MM60	*MM60
*k[b-e-]	*k[b-e-]	*k[b-e-]	*k[b-e-]	*k[b-e-]	*k[b-e-]	*k[b-e-]
*g:	*g:	*g:	*g:	*g:	*g:	*g:
4GG	4B-	4d	4g	4GG	i	4G 4b- 4dd
=1	=1	=1	=1	=1	=1	=1
4G	4B-	8d	4g	4GG	i	4G 4b- 4dd
.	.	8en	.	.	.	.
8D	8d	8f	4b-	8BB-	IIIb	8b- 8D 8ff
8En	8c	8g	.	8CC	V7b/-VII	8c 8E 8g 8b-
8F	4c	8f	4a	8FF	-VII	8F 8a 8cc
8F#	.	8e-	.	8FF#	viio7	8F# 8a 8cc 8ee-
8G	8B-	4d	4g	4GG	i	4G 4b- 4dd
8Fn	8A	.	.	.	.	.
=2	=2	=2	=2	=2	=2	=2
8E-	16G	8g	4b-	8EE-	VI	8E- 8g 8b-
.	16A	.	.	.	.	.
8D	4B-	8f	.	8BB-	III	8B- 8dd 8ff
8C	.	8e-	4cc	8CC	iv7	8C 8e- 8g 8b-
8F	8A	8f	.	8FF	-VII	8F 8a 8cc
4BB-;	4B-;	4f;	4dd;	4BB-;	III;	4B-; 4dd; 4ff;
4BB-	8B-	4f	4dd	4BB-	III	4B- 4dd 4ff
.	8c	.	.	.	.	.
=3	=3	=3	=3	=3	=3	=3
8B-	8d	4f	4dd	4BB-	IIIb	4b- 4D 4ff
8A	8c	.	.	.	.	.
4G	4B-	4g	8dd	4GG	i	4G 4b- 4dd
.	.	.	8ee-	.	.	.
4F	4c	4a	8ff	4FF	-VII	4F 4a 4cc
.	.	.	8ee-	.	.	.
8G	8B-	[4b-	4dd	4GG	i	4G 4b- 4dd
8F	8d	.	.	.	.	.
=4	=4	=4	=4	=4	=4	=4
4E-	4g	8b-]	4cc	4CC	ivb	4c 4E- 4g
.	.	16a	.	.	.	.
.	.	16g	.	.	.	.
4F	8f	4a	4cc	4FF	V7/III	4F 4a 4cc 4ee-
.	8e-	.	.	.	.	.
4BB-;	4d;	4f;	4b-;	4BB-;	III;	4B-; 4dd; 4ff;
8G	4d	4g	4b-	4GG	i	4G 4b- 4dd
8F	.	.	.	.	.	.
=5	=5	=5	=5	=5	=5	=5
8E-	4e-	8g	4b-	4EE-	VI	4E- 4g 4b-
8D	.	8a	.	.	.	.
8C	4f	4b-	4dd	4BB-	III	4B- 4dd 4ff
8BB-	.	.	.	.	.	.
4.F	4f	8b-	4cc	2FF	-VII	2F 2a 2cc
.	.	16a	.	.	.	.
.	.	16g	.	.	.	.
.	4c	4f	4a	.	.	.
8E-	.	.	.	.	.	.
=6	=6	=6	=6	=6	=6	=6
8D	4.B-	4f	4b-	4BB-	III	4B- 4dd 4ff
8BB-	.	.	.	.	.	.
4F	.	4f	4cc	4FF	-VII	4F 4a 4cc
.	8A	.	.	.	.	.
4BB-;	4B-;	4f;	4dd;	4BB-;	III;	4B-; 4dd; 4ff;
4BB-	4B-	4f	4dd	4BB-	III	4B- 4dd 4ff
=7	=7	=7	=7	=7	=7	=7
8BB-	4B-	4f	4dd	4BB-	III	4B- 4dd 4ff
8C	.	.	.	.	.	.
8D	[4B-	4f	4dd	4BB-	III	4B- 4dd 4ff
8E-	.	.	.	.	.	.
4F	8B-]	8.f	4cc	4FF	-VII	4F 4a 4cc
.	8A	.	.	.	.	.
.	.	16e-	.	.	.	.
8F#	[4A	[4d	4cc	4DD	V7	4D 4f# 4a 4cc
8D	.	.	.	.	.	.
=8	=8	=8	=8	=8	=8	=8
4G	8A]	4d]	4.b-	4GG	i	4G 4b- 4dd
.	8G	.	.	.	.	.
4C#	8G	4en	.	4CC#	vii7o/V	4C# 4e 4g 4b
.	16A	.	16a	.	.	.
.	16B-	.	16g	.	.	.
4D;	4A;	4d;	4f;	4DD;	v;	4D; 4f; 4a;
8BB-	8B-	4d	4f	4BB-	III	4B- 4dd 4ff
8AA	8c	.	.	.	.	.
=9	=9	=9	=9	=9	=9	=9
4GG	8d	8g	8b-	4GG	i	4G 4b- 4dd
.	8c	8a	8cc	.	.	.
8G	8B-	4b-	4dd	4GG	i	4G 4b- 4dd
8F	8A	.	.	.	.	.
4En	4G	4b-	4cc	4CC	V7b/-VII	4c 4E 4g 4b-
4F#	4d	4a	4dd	4DD	V	4D 4f# 4a
=10	=10	=10	=10	=10	=10	=10
8G	8d	8a	4b-	8GG	i	8G 8b- 8dd
8C	8e-	4g	.	8CC	V7/-VII	8C 8e 8g 8b-
4D	8A	.	4a	4DD	V	4D 4f# 4a
.	8d	8f#	.	.	.	.
4GG;	4B-;	4d;	4g;	4GG;	i;	4G; 4b-; 4dd;
==	==	==	==	==	==	==
*-	*-	*-	*-	*-	*-	*-
